X: 37
T:Back o' t' World
M:Jig
R:6/8
L:1/8
C:Steve Mansfield, Whaley Bridge, UK, http://www.lesession.co.uk
N:Written for a new North-West morris dance in honour of
N: Dave and Paula Vaughan's wedding, June 2000
D: Trebuchet 'Salvo' TrebuchetMusic TREBCD6001
Z:Steve Mansfield
K:G
D | D2G GFG | D2G GFG | E2A AGA | Bcd efg | D2G GFG | D2G GFG |
ABc E2F | G3 G2 :: G | A2F DFA | B2G EGB | c2A FAc |
d3 def | g2d Bcd | e2c ABc | ABc E2F | G3 G2 :|

